X:404
T: Maoshan laile Chensiling
N: C2021
O: China, Jiangsu Zenjiang
S: III, 456]
R: Haozi, Maoshan haozi]
M: 2/4
L: 1/16
K: G
A2A2d2dB | A2dBA4 | E4
G2G2 | A4d2dB | A4E4
d2ddd2B2 | A4E4
B3ed4 | e3Bd4
E2E2E2A2 | GAGED4
E2A2G2E2 | E3B,D4
G2G2G2D2 | G2G2G2D2
E2E2E2A2 | GAGED4
E2A2G2E2 | e2e4B2 | d8- | d8

